tools/download-figma-icons/icons/outlined-large/family.svg

<svg width="64" height="64" viewBox="0 0 64 64" fill="none" xmlns="http://www.w3.org/2000/svg">
<path fill-rule="evenodd" clip-rule="evenodd" d="M16.7039 39.3918H47.9737C51.5597 39.3918 54.4777 36.4748 54.4777 32.8888V25.5159H37.2858C36.6318 27.8208 34.5118 29.5158 31.9998 29.5158C29.4888 29.5158 27.3688 27.8208 26.7138 25.5159H16.4109C15.5819 25.5159 14.9109 24.8439 14.9109 24.0159C14.9109 23.1879 15.5819 22.5159 16.4109 22.5159H26.7138C26.8308 22.1019 26.9948 21.7059 27.2008 21.3379L19.8899 14.0269C19.3039 13.4409 19.3039 12.4919 19.8899 11.9059C20.4759 11.3199 21.4249 11.3199 22.0109 11.9059L29.3218 19.2169C29.7208 18.9939 30.1518 18.8219 30.6038 18.7029V5.60397C30.6038 4.16798 29.4358 2.99998 27.9998 2.99998H24.6269C12.7029 2.99998 2.99998 12.7029 2.99998 24.6269V31.3908H26.7658C27.5938 31.3908 28.2658 32.0628 28.2658 32.8908C28.2658 33.7188 27.5938 34.3908 26.7658 34.3908H3.18198C3.86198 37.2528 6.43496 39.3918 9.50195 39.3918H16.5679L16.5989 39.3338L16.7039 39.3918ZM22.2139 42.3918L29.8508 46.5497L37.4868 42.3918H22.2139ZM31.9998 26.5158C33.3788 26.5158 34.4998 25.3949 34.4998 24.0159C34.4998 22.6369 33.3788 21.5159 31.9998 21.5159C30.6208 21.5159 29.4998 22.6369 29.4998 24.0159C29.4998 25.3949 30.6208 26.5158 31.9998 26.5158ZM48.6457 55.4977C48.6457 52.4657 46.1777 49.9977 43.1458 49.9977C40.1138 49.9977 37.6458 52.4657 37.6458 55.4977C37.6458 58.5307 40.1138 60.9977 43.1458 60.9977C46.1777 60.9977 48.6457 58.5307 48.6457 55.4977ZM11.0559 55.4977C11.0559 58.5307 13.5239 60.9977 16.5559 60.9977C19.5879 60.9977 22.0559 58.5307 22.0559 55.4977C22.0559 52.4657 19.5879 49.9977 16.5559 49.9977C13.5239 49.9977 11.0559 52.4657 11.0559 55.4977ZM61.7396 14.5349L63.5826 16.4599C64.1566 17.0589 64.1356 18.0079 63.5366 18.5799C62.9396 19.1529 61.9886 19.1319 61.4166 18.5349L60.4437 17.5189C57.0177 20.1349 57.4567 23.5809 57.4627 23.6189C57.4727 23.6879 57.4777 23.7579 57.4777 23.8289V32.8888C57.4777 38.1288 53.2137 42.3918 47.9737 42.3918H43.7608L32.9878 48.2577L36.5228 50.1827C38.0818 48.2447 40.4698 46.9977 43.1458 46.9977C47.8317 46.9977 51.6457 50.8117 51.6457 55.4977C51.6457 60.1847 47.8317 63.9976 43.1458 63.9976C38.4588 63.9976 34.6458 60.1847 34.6458 55.4977C34.6458 54.5607 34.8038 53.6617 35.0858 52.8177L29.8508 49.9657L24.6159 52.8167C24.8979 53.6607 25.0559 54.5607 25.0559 55.4977C25.0559 60.1847 21.2429 63.9976 16.5559 63.9976C11.8699 63.9976 8.05595 60.1847 8.05595 55.4977C8.05595 50.8117 11.8699 46.9977 16.5559 46.9977C19.2319 46.9977 21.6189 48.2447 23.1779 50.1827L26.7128 48.2577L15.9399 42.3918H9.50195C4.26298 42.3918 0 38.1298 0 32.8908V24.6269C0 11.0479 11.0479 0 24.6269 0H27.9998C31.0898 0 33.6038 2.51399 33.6038 5.60397V18.7559C35.3818 19.2989 36.7768 20.7229 37.2858 22.5159H54.4747C54.6317 20.4819 55.5607 16.8439 59.8927 14.2809C60.4927 13.9259 61.2577 14.0309 61.7396 14.5349ZM33.1516 31.3908H36.1516C36.9796 31.3908 37.6516 32.0628 37.6516 32.8908C37.6516 33.7188 36.9796 34.3908 36.1516 34.3908H33.1516C32.3236 34.3908 31.6516 33.7188 31.6516 32.8908C31.6516 32.0628 32.3236 31.3908 33.1516 31.3908ZM16.556 53.4981C15.451 53.4981 14.556 54.3941 14.556 55.4981C14.556 56.6021 15.451 57.4981 16.556 57.4981C17.66 57.4981 18.556 56.6021 18.556 55.4981C18.556 54.3941 17.66 53.4981 16.556 53.4981ZM45.1456 55.4981C45.1456 56.6021 44.2496 57.4981 43.1457 57.4981C42.0417 57.4981 41.1457 56.6021 41.1457 55.4981C41.1457 54.3941 42.0417 53.4981 43.1457 53.4981C44.2496 53.4981 45.1456 54.3941 45.1456 55.4981Z" fill="black"/>
</svg>

<svg width="64" height="64" viewBox="0 0 64 64" fill="none" xmlns="http://www.w3.org/2000/svg"><path fill-rule="evenodd" clip-rule="evenodd" d="M16.704 39.392h31.27a6.51 6.51 0 0 0 6.504-6.503v-7.373H37.286a5.504 5.504 0 0 1-5.286 4c-2.511 0-4.631-1.695-5.286-4H16.41a1.5 1.5 0 1 1 0-3h10.303c.117-.414.28-.81.487-1.178l-7.311-7.311a1.5 1.5 0 1 1 2.12-2.121l7.312 7.31c.399-.222.83-.394 1.282-.513V5.604A2.607 2.607 0 0 0 28 3h-3.373C12.703 3 3 12.703 3 24.627v6.764h23.766a1.5 1.5 0 0 1 0 3H3.182c.68 2.862 3.253 5 6.32 5h7.066l.03-.057.106.058Zm5.51 3 7.637 4.158 7.636-4.158H22.214ZM32 26.516c1.379 0 2.5-1.121 2.5-2.5 0-1.38-1.121-2.5-2.5-2.5a2.502 2.502 0 0 0-2.5 2.5c0 1.379 1.12 2.5 2.5 2.5Zm16.646 28.982c0-3.032-2.468-5.5-5.5-5.5a5.507 5.507 0 0 0-5.5 5.5c0 3.033 2.468 5.5 5.5 5.5s5.5-2.467 5.5-5.5Zm-37.59 0c0 3.033 2.468 5.5 5.5 5.5s5.5-2.467 5.5-5.5c0-3.032-2.468-5.5-5.5-5.5a5.507 5.507 0 0 0-5.5 5.5ZM61.74 14.535l1.843 1.925a1.5 1.5 0 0 1-2.166 2.075l-.973-1.016c-3.426 2.616-2.987 6.062-2.981 6.1.01.069.015.139.015.21v9.06c0 5.24-4.264 9.503-9.504 9.503H43.76l-10.773 5.866 3.535 1.925a8.487 8.487 0 0 1 6.623-3.185c4.686 0 8.5 3.814 8.5 8.5 0 4.687-3.814 8.5-8.5 8.5-4.687 0-8.5-3.813-8.5-8.5 0-.937.158-1.836.44-2.68l-5.235-2.852-5.235 2.85c.282.845.44 1.745.44 2.682 0 4.687-3.813 8.5-8.5 8.5-4.686 0-8.5-3.813-8.5-8.5 0-4.686 3.814-8.5 8.5-8.5a8.485 8.485 0 0 1 6.622 3.185l3.535-1.925-10.773-5.866H9.502C4.263 42.392 0 38.13 0 32.89v-8.264C0 11.047 11.048 0 24.627 0H28a5.61 5.61 0 0 1 5.604 5.604v13.152a5.517 5.517 0 0 1 3.682 3.76h17.189c.157-2.034 1.086-5.672 5.418-8.235.6-.355 1.365-.25 1.847.254ZM33.152 31.39h3a1.5 1.5 0 0 1 0 3h-3a1.5 1.5 0 0 1 0-3ZM16.556 53.498a2 2 0 1 0 0 4 2 2 0 0 0 0-4Zm28.59 2a2 2 0 1 1-4.002-.001 2 2 0 0 1 4.002.001Z" fill="currentColor"/></svg>
